lib/flags/ms-montserrat.svg

<svg xmlns="http://www.w3.org/2000/svg" fill="none" aria-hidden="true" viewBox="0 0 42 30"><g id="Country=MS - Montserrat, Size=sm (36x24)" filter="url(#filter0_dd_91_26328)"><g clip-path="url(#clip0_91_26328)"><g id="flag"><mask id="mask0_91_26328" width="36" height="24" x="3" y="2" maskUnits="userSpaceOnUse" style="mask-type:alpha"><rect id="mask" width="36" height="24" x="3" y="2" fill="white"/></mask><g mask="url(#mask0_91_26328)"><g id="contents"><path id="background" fill="#2E42A5" fill-rule="evenodd" d="M3 2V26H39V2H3Z" clip-rule="evenodd"/><mask id="mask1_91_26328" width="36" height="24" x="3" y="2" maskUnits="userSpaceOnUse" style="mask-type:alpha"><path id="background_2" fill="white" fill-rule="evenodd" d="M3 2V26H39V2H3Z" clip-rule="evenodd"/></mask><g mask="url(#mask1_91_26328)"><g id="masked"><path id="Path 2" fill="#6DC2FF" stroke="#F7FCFF" stroke-width="0.5" d="M32.1698 23.714C30.702 23.714 29.6657 23.4166 28.9258 22.8905C28.1883 22.3661 27.7148 21.5928 27.4138 20.5793C27.1116 19.5615 26.9881 18.3171 26.942 16.8726C26.9096 15.8573 26.9156 14.7554 26.9221 13.574C26.9243 13.1536 26.9267 12.723 26.9274 12.2827H37.5367C37.7251 15.192 37.7965 18.0324 37.1303 20.1608C36.7905 21.2467 36.2638 22.1291 35.4779 22.7415C34.6937 23.3525 33.6268 23.714 32.1698 23.714Z"/><mask id="mask2_91_26328" width="12" height="12" x="26" y="12" maskUnits="userSpaceOnUse" style="mask-type:alpha"><path id="Path 2_2" fill="white" stroke="white" stroke-width="0.5" d="M32.1698 23.714C30.702 23.714 29.6657 23.4166 28.9258 22.8905C28.1883 22.3661 27.7148 21.5928 27.4138 20.5793C27.1116 19.5615 26.9881 18.3171 26.942 16.8726C26.9096 15.8573 26.9156 14.7554 26.9221 13.574C26.9243 13.1536 26.9267 12.723 26.9274 12.2827H37.5367C37.7251 15.192 37.7965 18.0324 37.1303 20.1608C36.7905 21.2467 36.2638 22.1291 35.4779 22.7415C34.6937 23.3525 33.6268 23.714 32.1698 23.714Z"/></mask><g mask="url(#mask2_91_26328)"><g id="mark"><rect id="bg" width="11.3288" height="7.97838" x="26.5493" y="12" fill="#2EBED7"/><rect id="bg_2" width="11.925" height="4.08649" x="26.4004" y="19.9136" fill="#A95601"/><g id="inside"><path id="Path 170" stroke="#FFC6B5" d="M33.0895 15.4637C33.0895 15.4637 30.9891 15.8872 31.1922 15.4637C31.3953 15.0402 31.9385 13.5132 31.9385 13.5132"/><path id="Path 171" fill="#FFC6B5" fill-rule="evenodd" d="M33.7212 15.7657C33.7212 15.7657 33.338 15.557 33.338 15.1769C33.338 14.7967 32.4035 14.6545 33.0624 14.0606C33.7212 13.4666 34.0055 13.7282 34.0055 14.0606C34.0055 14.3929 34.5351 15.1769 34.5351 15.1769L33.7212 15.7657Z" clip-rule="evenodd"/><path id="Combined Shape" fill="#272727" fill-rule="evenodd" d="M32.6611 12.3242H31.6177V13.2323H29.5308V14.1404H31.6177V22.0539H32.6611V14.1404H34.7479V13.2323H32.6611V12.3242Z" clip-rule="evenodd"/><path id="Path 169" fill="#0C7C38" fill-rule="evenodd" d="M34.9078 22.3209C34.9078 22.3209 34.5283 20.7593 34.5283 19.6904C34.5283 18.6215 33.8922 17.857 34.0739 17.2917C34.2557 16.7265 34.6934 16.1014 34.4746 15.7145C34.2557 15.3276 34.6881 15.1392 34.0739 15.3276C33.4598 15.516 33.2947 15.1392 32.7017 15.3276C32.1088 15.516 32.0337 16.4054 32.0337 16.6591C32.0337 16.9129 32.2974 18.6235 32.2974 19.157C32.2974 19.6904 32.0801 22.9707 32.7017 22.9707C33.3233 22.9707 34.0011 22.117 34.2378 22.117C34.4746 22.117 34.9078 22.3209 34.9078 22.3209Z" clip-rule="evenodd"/><path id="Path 172" fill-rule="evenodd" stroke="#FF9A06" d="M31.159 18.1411C30.7801 18.1411 31.1286 18.9235 30.1644 19.2666C29.2002 19.6096 29.0109 20.0927 29.3147 20.0927C29.6184 20.0927 32.02 22.4912 32.02 22.4912L32.6089 21.682V19.1264C32.6089 19.1264 31.5379 18.1411 31.159 18.1411Z" clip-rule="evenodd"/><path id="Path 173" stroke="#979797" d="M33.9863 22.1577C33.9863 22.1577 34.4363 23.0161 33.9863 23.0161"/><path id="Path 174" stroke="#FFC6B5" d="M33.8416 15.79C33.8416 15.79 33.6439 16.7529 33.2675 16.9545C32.8912 17.156 31.3449 17.5463 31.3449 17.8795C31.3449 18.2127 31.1914 18.3318 31.1914 18.3318"/><path id="Path 175" fill="#FF9A06" fill-rule="evenodd" d="M33.0918 13.8022C33.0918 13.8022 33.4702 14.2019 33.682 14.8608C33.8939 15.5197 34.5076 15.7441 34.5076 15.4357C34.5076 15.1274 34.9612 13.8022 34.5076 13.8022C34.0539 13.8022 33.0918 13.8022 33.0918 13.8022Z" clip-rule="evenodd"/></g></g></g></g><g id="gb - large"><g id="flag_2"><rect id="mask_2" width="20.25" height="14" x="3" y="2" fill="#2B409A"/><mask id="mask3_91_26328" width="21" height="14" x="3" y="2" maskUnits="userSpaceOnUse" style="mask-type:alpha"><rect id="mask_3" width="20.25" height="14" x="3" y="2" fill="white"/></mask><g mask="url(#mask3_91_26328)"><g id="contents_2"><g id="stripe"><path id="white" fill="#F7FCFF" d="M0.745117 14.9996L5.20119 16.7368L23.351 3.88854L25.7015 1.30701L20.9364 0.726383L13.5335 6.26307L7.57493 9.99351L0.745117 14.9996Z"/><path id="red" fill="#F50100" d="M1.35498 16.217L3.62514 17.2251L24.8573 1.06738H21.6697L1.35498 16.217Z"/></g><g id="stripe_2"><path id="white_2" fill="#F7FCFF" d="M25.5049 14.9996L21.0488 16.7368L2.89897 3.88854L0.548492 1.30701L5.31362 0.726383L12.7165 6.26307L18.6751 9.99351L25.5049 14.9996Z"/><path id="red_2" fill="#F50100" d="M25.353 15.8732L23.0829 16.8813L14.042 9.96339L11.3616 9.19046L0.322518 1.31593H3.51009L14.5429 9.00356L17.4735 9.93038L25.353 15.8732Z"/></g><g id="cross"><g id="red_3"><mask id="path-23-outside-1_91_26328" width="24" height="18" x="1" y="0" fill="black" maskUnits="userSpaceOnUse"><rect width="24" height="18" x="1" fill="white"/><path fill-rule="evenodd" d="M14.2326 2H11.9826V8H3V10H11.9826V16H14.2326V10H23.25V8H14.2326V2Z" clip-rule="evenodd"/></mask><path fill="#F50100" fill-rule="evenodd" d="M14.2326 2H11.9826V8H3V10H11.9826V16H14.2326V10H23.25V8H14.2326V2Z" clip-rule="evenodd"/><path fill="#F7FCFF" d="M11.9826 2V0.5H10.4826V2H11.9826ZM14.2326 2H15.7326V0.5H14.2326V2ZM11.9826 8V9.5H13.4826V8H11.9826ZM3 8V6.5H1.5V8H3ZM3 10H1.5V11.5H3V10ZM11.9826 10H13.4826V8.5H11.9826V10ZM11.9826 16H10.4826V17.5H11.9826V16ZM14.2326 16V17.5H15.7326V16H14.2326ZM14.2326 10V8.5H12.7326V10H14.2326ZM23.25 10V11.5H24.75V10H23.25ZM23.25 8H24.75V6.5H23.25V8ZM14.2326 8H12.7326V9.5H14.2326V8ZM11.9826 3.5H14.2326V0.5H11.9826V3.5ZM13.4826 8V2H10.4826V8H13.4826ZM3 9.5H11.9826V6.5H3V9.5ZM4.5 10V8H1.5V10H4.5ZM11.9826 8.5H3V11.5H11.9826V8.5ZM13.4826 16V10H10.4826V16H13.4826ZM14.2326 14.5H11.9826V17.5H14.2326V14.5ZM12.7326 10V16H15.7326V10H12.7326ZM23.25 8.5H14.2326V11.5H23.25V8.5ZM21.75 8V10H24.75V8H21.75ZM14.2326 9.5H23.25V6.5H14.2326V9.5ZM12.7326 2V8H15.7326V2H12.7326Z" mask="url(#path-23-outside-1_91_26328)"/></g></g></g></g></g></g></g></g></g></g></g></g><defs><filter id="filter0_dd_91_26328" width="42" height="30" x="0" y="0" color-interpolation-filters="sRGB" filterUnits="userSpaceOnUse"><feFlood flood-opacity="0" result="BackgroundImageFix"/><feColorMatrix in="SourceAlpha" result="hardAlpha" values="0 0 0 0 0 0 0 0 0 0 0 0 0 0 0 0 0 0 127 0"/><feOffset dy="1"/><feGaussianBlur stdDeviation="1"/><feColorMatrix values="0 0 0 0 0.0627451 0 0 0 0 0.0941176 0 0 0 0 0.156863 0 0 0 0.06 0"/><feBlend in2="BackgroundImageFix" result="effect1_dropShadow_91_26328"/><feColorMatrix in="SourceAlpha" result="hardAlpha" values="0 0 0 0 0 0 0 0 0 0 0 0 0 0 0 0 0 0 127 0"/><feOffset dy="1"/><feGaussianBlur stdDeviation="1.5"/><feColorMatrix values="0 0 0 0 0.0627451 0 0 0 0 0.0941176 0 0 0 0 0.156863 0 0 0 0.1 0"/><feBlend in2="effect1_dropShadow_91_26328" result="effect2_dropShadow_91_26328"/><feBlend in="SourceGraphic" in2="effect2_dropShadow_91_26328" result="shape"/></filter><clipPath id="clip0_91_26328"><rect width="36" height="24" x="3" y="2" fill="white" rx="2"/></clipPath></defs></svg>

<svg xmlns="http://www.w3.org/2000/svg" fill="none" aria-hidden="true" viewBox="0 0 42 30"><g filter="url(#a)"><g clip-path="url(#b)"><mask id="c" width="36" height="24" x="3" y="2" maskUnits="userSpaceOnUse" style="mask-type:alpha"><path fill="#fff" d="M3 2h36v24H3z"/></mask><g mask="url(#c)"><path fill="#2E42A5" fill-rule="evenodd" d="M3 2v24h36V2H3Z" clip-rule="evenodd"/><mask id="d" width="36" height="24" x="3" y="2" maskUnits="userSpaceOnUse" style="mask-type:alpha"><path fill="#fff" fill-rule="evenodd" d="M3 2v24h36V2H3Z" clip-rule="evenodd"/></mask><g mask="url(#d)"><path fill="#6DC2FF" stroke="#F7FCFF" stroke-width=".5" d="M32.17 23.714c-1.468 0-2.504-.297-3.244-.823-.738-.525-1.211-1.298-1.512-2.312-.302-1.018-.426-2.262-.472-3.706a90.779 90.779 0 0 1-.02-3.299c.002-.42.005-.851.005-1.291h10.61c.188 2.909.26 5.75-.407 7.878-.34 1.086-.866 1.968-1.652 2.58-.784.611-1.851.973-3.308.973Z"/><mask id="e" width="12" height="12" x="26" y="12" maskUnits="userSpaceOnUse" style="mask-type:alpha"><path fill="#fff" stroke="#fff" stroke-width=".5" d="M32.17 23.714c-1.468 0-2.504-.297-3.244-.823-.738-.525-1.211-1.298-1.512-2.312-.302-1.018-.426-2.262-.472-3.706a90.779 90.779 0 0 1-.02-3.299c.002-.42.005-.851.005-1.291h10.61c.188 2.909.26 5.75-.407 7.878-.34 1.086-.866 1.968-1.652 2.58-.784.611-1.851.973-3.308.973Z"/></mask><g mask="url(#e)"><path fill="#2EBED7" d="M26.549 12h11.329v7.978H26.549z"/><path fill="#A95601" d="M26.4 19.914h11.925V24H26.4z"/><path stroke="#FFC6B5" d="M33.09 15.464s-2.1.423-1.898 0c.203-.424.747-1.95.747-1.95"/><path fill="#FFC6B5" fill-rule="evenodd" d="M33.721 15.766s-.383-.209-.383-.59c0-.38-.934-.521-.276-1.115.66-.594.944-.333.944 0 0 .332.53 1.116.53 1.116l-.815.589Z" clip-rule="evenodd"/><path fill="#272727" fill-rule="evenodd" d="M32.661 12.324h-1.043v.908H29.53v.908h2.087v7.914h1.043V14.14h2.087v-.908H32.66v-.908Z" clip-rule="evenodd"/><path fill="#0C7C38" fill-rule="evenodd" d="M34.908 22.32s-.38-1.56-.38-2.63c0-1.069-.636-1.833-.454-2.398.182-.566.62-1.19.4-1.578-.218-.386.214-.575-.4-.386-.614.188-.78-.189-1.372 0-.593.188-.668 1.077-.668 1.331s.263 1.965.263 2.498c0 .533-.217 3.814.405 3.814.621 0 1.3-.854 1.536-.854.237 0 .67.204.67.204Z" clip-rule="evenodd"/><path stroke="#FF9A06" d="M31.159 18.141c-.379 0-.03.783-.995 1.126-.964.343-1.153.826-.85.826.304 0 2.706 2.398 2.706 2.398l.589-.809v-2.556s-1.071-.985-1.45-.985Z" clip-rule="evenodd"/><path stroke="#979797" d="M33.986 22.158s.45.858 0 .858"/><path stroke="#FFC6B5" d="M33.842 15.79s-.198.963-.575 1.165c-.376.201-1.922.591-1.922.925 0 .333-.154.452-.154.452"/><path fill="#FF9A06" fill-rule="evenodd" d="M33.092 13.802s.378.4.59 1.059c.212.659.826.883.826.575 0-.309.453-1.634 0-1.634h-1.416Z" clip-rule="evenodd"/></g><path fill="#2B409A" d="M3 2h20.25v14H3z"/><mask id="f" width="21" height="14" x="3" y="2" maskUnits="userSpaceOnUse" style="mask-type:alpha"><path fill="#fff" d="M3 2h20.25v14H3z"/></mask><g mask="url(#f)"><path fill="#F7FCFF" d="m.745 15 4.456 1.737 18.15-12.848 2.35-2.582-4.765-.58-7.402 5.536-5.96 3.73L.746 15Z"/><path fill="#F50100" d="m1.355 16.217 2.27 1.008L24.857 1.067H21.67L1.355 16.217Z"/><path fill="#F7FCFF" d="m25.505 15-4.456 1.737L2.899 3.889.549 1.307l4.765-.58 7.402 5.536 5.96 3.73L25.504 15Z"/><path fill="#F50100" d="m25.353 15.873-2.27 1.008-9.041-6.918-2.68-.773L.322 1.316H3.51l11.033 7.688 2.93.926 7.88 5.943Z"/><mask id="g" width="24" height="18" x="1" y="0" fill="#000" maskUnits="userSpaceOnUse"><path fill="#fff" d="M1 0h24v18H1z"/><path fill-rule="evenodd" d="M14.233 2h-2.25v6H3v2h8.983v6h2.25v-6h9.017V8h-9.017V2Z" clip-rule="evenodd"/></mask><path fill="#F50100" fill-rule="evenodd" d="M14.233 2h-2.25v6H3v2h8.983v6h2.25v-6h9.017V8h-9.017V2Z" clip-rule="evenodd"/><path fill="#F7FCFF" d="M11.983 2V.5h-1.5V2h1.5Zm2.25 0h1.5V.5h-1.5V2Zm-2.25 6v1.5h1.5V8h-1.5ZM3 8V6.5H1.5V8H3Zm0 2H1.5v1.5H3V10Zm8.983 0h1.5V8.5h-1.5V10Zm0 6h-1.5v1.5h1.5V16Zm2.25 0v1.5h1.5V16h-1.5Zm0-6V8.5h-1.5V10h1.5Zm9.017 0v1.5h1.5V10h-1.5Zm0-2h1.5V6.5h-1.5V8Zm-9.017 0h-1.5v1.5h1.5V8Zm-2.25-4.5h2.25v-3h-2.25v3Zm1.5 4.5V2h-3v6h3ZM3 9.5h8.983v-3H3v3Zm1.5.5V8h-3v2h3Zm7.483-1.5H3v3h8.983v-3Zm1.5 7.5v-6h-3v6h3Zm.75-1.5h-2.25v3h2.25v-3Zm-1.5-4.5v6h3v-6h-3ZM23.25 8.5h-9.017v3h9.017v-3Zm-1.5-.5v2h3V8h-3Zm-7.517 1.5h9.017v-3h-9.017v3Zm-1.5-7.5v6h3V2h-3Z" mask="url(#g)"/></g></g></g></g></g><defs><clipPath id="b"><rect width="36" height="24" x="3" y="2" fill="#fff" rx="2"/></clipPath><filter id="a" width="42" height="30" x="0" y="0" color-interpolation-filters="sRGB" filterUnits="userSpaceOnUse"><feFlood flood-opacity="0" result="BackgroundImageFix"/><feColorMatrix in="SourceAlpha" result="hardAlpha" values="0 0 0 0 0 0 0 0 0 0 0 0 0 0 0 0 0 0 127 0"/><feOffset dy="1"/><feGaussianBlur stdDeviation="1"/><feColorMatrix values="0 0 0 0 0.0627451 0 0 0 0 0.0941176 0 0 0 0 0.156863 0 0 0 0.06 0"/><feBlend in2="BackgroundImageFix" result="effect1_dropShadow_91_26328"/><feColorMatrix in="SourceAlpha" result="hardAlpha" values="0 0 0 0 0 0 0 0 0 0 0 0 0 0 0 0 0 0 127 0"/><feOffset dy="1"/><feGaussianBlur stdDeviation="1.5"/><feColorMatrix values="0 0 0 0 0.0627451 0 0 0 0 0.0941176 0 0 0 0 0.156863 0 0 0 0.1 0"/><feBlend in2="effect1_dropShadow_91_26328" result="effect2_dropShadow_91_26328"/><feBlend in="SourceGraphic" in2="effect2_dropShadow_91_26328" result="shape"/></filter></defs></svg>
